X:1
T:Over There
M:4/4
L:1/8
K:G
 DD| G3/2 G/2 FG BG A3/2 A/2| G4 z2 DD| G3/2 G/2 FG BG Bc| d2- c3/2-d/2-c/2 A3/2 Bc|\
 d3/2 ^c/2 dc d B2 B| BG G3/2 G/2 GF G3.99999962500005/5.99999925000009 G3.99999962500005/5.99999925000009 G3.99999962500005/5.99999925000009|\
 BG A/2 A3/2 GD F3/2 G/2| G4- G2||
